img/dpg.svg

<svg fill="none" height="47" viewBox="0 0 93 47" width="93" xmlns="http://www.w3.org/2000/svg"><path d="m73.5202 44.5816h-65.00997l-7.27-14.03.16-.34 13.30997-28.32h64.95l7.25 14.07zm-64.09997-1.5h63.13997l12.68-27.08-6.49-12.6h-63.08l-12.75997 27.12z" fill="#2c269a"/><path d="m73.5202 44.5816h-65.00997l-7.27-14.03.16-.34 13.30997-28.32h64.95l7.25 14.07zm-64.09997-1.5h63.13997l12.68-27.08-6.49-12.6h-63.08l-12.75997 27.12z" fill="#82dbe1"/><path d="m14.7102 1.8916h64.04l6.49 14.1-12.68 27.09h-63.14004l-6.51-12.56z" fill="#82dbe1"/><g fill="#2c269a"><path d="m18.0503 15.4014h4.11c4.14 0 7.52 3.36 7.52 7.52s-3.38 7.52-7.52 7.52h-4.11zm4.09 13.44c3.34 0 5.94-2.53 5.94-5.92s-2.6-5.92-5.94-5.92h-2.51v11.83h2.51z"/><path d="m42.3305 19.5814c0 2.33-1.86 4.16-4.19 4.16h-3.79v6.7h-1.6v-15.04h5.39c2.33 0 4.19 1.88 4.19 4.18zm-1.6.03c0-1.6-1.23-2.66-2.73-2.66h-3.64v5.27h3.64c1.5 0 2.73-.96 2.73-2.61z"/><path d="m59.5103 22.4712v.45c0 4.26-3.46 7.72-7.72 7.72-4.29 0-7.72-3.46-7.72-7.72s3.44-7.72 7.72-7.72c2.88 0 5.39 1.58 6.69 3.91l-1.38.78c-1.03-1.86-3.03-3.08-5.31-3.08-3.39 0-6.12 2.71-6.12 6.12s2.73 6.12 6.12 6.12c3.03 0 5.54-2.16 6.02-5.07h-6.04v-1.5h7.74z"/><path d="m87.3404 11.042h-19.92v19.92h19.92z"/><path d="m90.9421 17.2764-17.2507-9.95999-9.96 17.25069 17.2507 9.96z"/><path d="m80.9846 7.31441-17.2507 9.95999 9.96 17.2507 17.2507-9.96z"/></g><path d="m72.3403 21.1513 3.78 3.78 7.36-7.36" stroke="#fff" stroke-miterlimit="10"/></svg>

<svg width="93" height="47" viewBox="0 0 93 47" fill="none" xmlns="http://www.w3.org/2000/svg">
<path d="M73.5202 44.5816H8.51023L1.24023 30.5516L1.40023 30.2116L14.7102 1.8916H79.6602L86.9102 15.9616L73.5202 44.5816ZM9.42023 43.0816H72.5602L85.2402 16.0016L78.7502 3.4016H15.6702L2.91023 30.5216L9.42023 43.0816Z" fill="#2C269A"/>
<path d="M73.5202 44.5816H8.51023L1.24023 30.5516L1.40023 30.2116L14.7102 1.8916H79.6602L86.9102 15.9616L73.5202 44.5816ZM9.42023 43.0816H72.5602L85.2402 16.0016L78.7502 3.4016H15.6702L2.91023 30.5216L9.42023 43.0816Z" fill="#82DBE1"/>
<path d="M14.7102 1.8916H78.7502L85.2402 15.9916L72.5602 43.0816H9.42016L2.91016 30.5216L14.7102 1.8916Z" fill="#82DBE1"/>
<path d="M18.0503 15.4014H22.1603C26.3003 15.4014 29.6803 18.7614 29.6803 22.9214C29.6803 27.0814 26.3003 30.4414 22.1603 30.4414H18.0503V15.4014ZM22.1403 28.8414C25.4803 28.8414 28.0803 26.3114 28.0803 22.9214C28.0803 19.5314 25.4803 17.0014 22.1403 17.0014H19.6303V28.8314H22.1403V28.8414Z" fill="#2C269A"/>
<path d="M42.3305 19.5814C42.3305 21.9114 40.4705 23.7414 38.1405 23.7414H34.3505V30.4414H32.7505V15.4014H38.1405C40.4705 15.4014 42.3305 17.2814 42.3305 19.5814ZM40.7305 19.6114C40.7305 18.0114 39.5005 16.9514 38.0005 16.9514H34.3605V22.2214H38.0005C39.5005 22.2214 40.7305 21.2614 40.7305 19.6114Z" fill="#2C269A"/>
<path d="M59.5103 22.4712V22.9212C59.5103 27.1812 56.0503 30.6412 51.7903 30.6412C47.5003 30.6412 44.0703 27.1812 44.0703 22.9212C44.0703 18.6612 47.5103 15.2012 51.7903 15.2012C54.6703 15.2012 57.1803 16.7812 58.4803 19.1112L57.1003 19.8912C56.0703 18.0312 54.0703 16.8112 51.7903 16.8112C48.4003 16.8112 45.6703 19.5212 45.6703 22.9312C45.6703 26.3412 48.4003 29.0512 51.7903 29.0512C54.8203 29.0512 57.3303 26.8912 57.8103 23.9812H51.7703V22.4812H59.5103V22.4712Z" fill="#2C269A"/>
<path d="M87.3404 11.042H67.4204V30.962H87.3404V11.042Z" fill="#2C269A"/>
<path d="M90.9421 17.2764L73.6914 7.31641L63.7314 24.5671L80.9821 34.5271L90.9421 17.2764Z" fill="#2C269A"/>
<path d="M80.9846 7.31441L63.7339 17.2744L73.6939 34.5251L90.9446 24.5651L80.9846 7.31441Z" fill="#2C269A"/>
<path d="M72.3403 21.1513L76.1203 24.9313L83.4803 17.5713" stroke="white" stroke-miterlimit="10"/>
</svg>
